frontend/public/svg/finance/safe.svg

<svg width="159" height="158" viewBox="0 0 159 158" fill="none" xmlns="http://www.w3.org/2000/svg">
<g clip-path="url(#clip0)">
<path d="M131.257 138.942C131.713 142.646 132.247 146.066 132.526 149.509C132.83 153.25 131.082 155.458 127.528 155.767C120.932 156.342 114.321 156.752 107.715 157.221C107.268 157.253 106.817 157.233 106.367 157.229C101.528 157.192 99.911 155.498 100.024 150.718C100.09 147.913 100.047 145.105 100.034 142.299C100.011 141.888 99.9609 141.478 99.8854 141.073H54.7174C54.932 142.685 55.1565 143.857 55.23 145.038C55.4679 147.379 55.5536 149.732 55.4866 152.083C55.2969 154.868 53.6049 156.551 50.9494 156.569C44.3263 156.613 37.6913 156.646 31.0814 156.326C26.3715 156.098 25.4118 154.632 25.5549 149.829C25.6409 146.915 25.5707 143.995 25.5707 140.667C23.2657 140.366 20.9763 140.065 18.6915 139.767C15.104 139.3 11.6603 138.455 8.50327 136.547C7.08906 135.737 5.85656 134.645 4.88235 133.339C3.90815 132.033 3.21309 130.54 2.84043 128.953C1.08035 121.633 0.264271 114.116 0.412014 106.588C0.507183 94.8009 0.805692 83.0151 0.957309 71.2279C1.14765 56.305 1.24216 41.3798 1.44956 26.4567C1.53029 20.675 3.70943 15.545 6.72334 10.7046C9.8357 5.70522 14.5993 3.40344 20.1736 2.82849C26.8683 2.14131 33.5977 1.59992 40.3232 1.45028C50.5397 1.22713 60.7675 1.54679 70.9862 1.36039C80.8641 1.18055 90.7347 0.409237 100.611 0.339665C112.954 0.252372 125.305 0.49324 137.643 0.873261C140.602 0.964491 143.586 1.97801 146.452 2.89819C148.238 3.44983 149.85 4.45398 151.133 5.81326C152.416 7.17254 153.326 8.84062 153.773 10.6553C155.368 16.2775 156.722 21.9739 156.626 27.8652C156.436 39.6504 155.904 51.4343 155.946 63.2168C155.979 73.0893 156.555 82.9626 157.01 92.8299C157.397 101.231 158.561 109.593 157.392 118.033C156.653 123.524 154.168 128.633 150.304 132.603C147.482 135.583 143.751 136.853 139.838 137.592C137.001 138.123 134.135 138.494 131.257 138.942ZM118.519 133.277C125.225 132.924 131.909 131.893 138.564 130.928C143.513 130.21 146.615 127.065 147.859 122.313C148.638 119.621 149.056 116.837 149.101 114.036C148.995 105.959 148.699 97.8851 148.21 89.8134C147.554 78.9261 147.558 68.0552 147.933 57.1563C148.326 45.717 148.309 34.262 148.359 22.8135C148.367 20.9324 147.831 19.0434 147.498 17.1689C146.669 12.4964 144.02 9.79159 139.153 9.43913C137.815 9.342 136.494 8.93776 135.159 8.89706C126.408 8.63059 117.651 8.14031 108.905 8.25385C85.4335 8.56016 61.9642 9.03227 38.4978 9.67023C32.2357 9.8435 25.9946 10.8819 19.7515 11.5888C16.3386 11.9747 13.9595 13.9581 12.507 16.9628C10.4519 21.0984 9.3128 25.6286 9.16749 30.2444C8.9463 39.101 8.61675 47.9558 8.45726 56.8137C8.15469 73.6563 7.80092 90.5006 7.7668 107.345C7.75498 112.924 8.68055 118.507 9.12161 124.093C9.53904 129.378 12.5056 132.16 17.5962 132.949C18.4822 133.087 19.3538 133.364 20.2425 133.427C26.7324 133.887 33.2204 134.554 39.7181 134.684C50.1572 134.892 102.713 134.11 118.519 133.277ZM123.351 139.499L105.712 140.649L107.091 149.843L123.354 148.776L123.351 139.499ZM47.6946 150.233C47.5214 147.017 47.3729 144.278 47.2075 141.215H30.6205C30.9238 144.263 31.2048 147.083 31.487 149.92C32.2818 150.063 33.0836 150.163 33.8891 150.221C38.3351 150.242 42.782 150.233 47.6946 150.233Z" fill="black"/>
<path d="M103.116 74.5132C102.165 78.1532 101.621 81.6265 100.327 84.7921C99.0749 87.8499 97.0494 90.5915 95.2596 93.6526C95.9599 94.414 96.5966 95.2311 97.163 96.0968C97.8475 97.1128 98.3044 98.2647 98.5019 99.4737C98.5623 100.121 98.4336 100.773 98.1317 101.349C97.8305 101.926 97.3684 102.402 96.8013 102.721C96.2349 103.041 95.5878 103.189 94.9387 103.149C94.2889 103.108 93.6654 102.88 93.1429 102.493C91.485 101.3 90.3207 99.4258 88.9614 97.8899L72.3613 102.346C72.3613 102.851 72.3396 103.715 72.3672 104.578C72.3928 105.366 72.4847 106.145 72.5234 106.929C72.7137 110.731 71.2022 113.106 68.5138 113.246C65.7612 113.39 64.0107 110.912 64.0507 106.945C64.0652 105.386 64.0507 103.827 64.0507 101.919C58.0997 101.06 52.1514 100.03 46.7517 96.4421C45.2887 97.8322 43.8972 99.2551 42.3941 100.549C41.3426 101.544 40.154 102.385 38.8644 103.043C38.2084 103.393 37.4507 103.504 36.722 103.355C35.9933 103.207 35.3393 102.809 34.8725 102.23C34.3655 101.688 34.0577 100.99 33.9998 100.251C33.942 99.5117 34.1376 98.774 34.5543 98.1603C35.2806 97.04 36.1475 96.0168 37.1337 95.1156C38.2921 94.0727 39.6383 93.2385 40.9752 92.2599C39.503 89.626 37.8339 87.1332 36.6722 84.4225C35.5394 81.7782 34.9244 78.9093 34.0055 75.8902C32.318 75.9834 30.4495 76.1671 28.5809 76.1606C27.2404 76.1336 25.9048 75.9886 24.5897 75.7274C23.9644 75.6624 23.3864 75.3651 22.9705 74.8932C22.5546 74.4219 22.3311 73.8115 22.3444 73.1828C22.2768 72.4975 22.4827 71.8123 22.9175 71.2774C23.3522 70.7431 23.9806 70.4018 24.6658 70.3277C26.9774 69.8965 29.3291 69.6805 31.667 69.397C32.4382 69.3031 33.2193 69.2835 34.358 69.204C35.569 62.5491 37.8833 56.3126 42.4849 51.1551C41.2234 49.8582 40.076 48.6682 38.9169 47.4914C38.1293 46.692 37.2636 45.9614 36.5422 45.1082C35.095 43.3984 34.9593 41.8081 36.0449 40.567C37.1009 39.36 38.9274 39.1657 40.6208 40.4574C42.9239 42.215 45.0444 44.213 47.5077 46.3356C52.9664 41.8981 59.8645 40.4823 66.7338 38.153C66.8336 36.7458 66.9071 35.319 67.0436 33.898C67.1821 32.4481 67.1165 30.8971 67.6442 29.5943C68.038 28.621 69.1807 27.4185 70.0871 27.3319C71.0099 27.2433 72.314 28.197 72.9664 29.06C73.5808 29.8733 73.6477 31.1518 73.8059 32.2472C74.0428 33.8973 74.1492 35.5656 74.331 37.4591C81.2881 37.6153 87.0678 40.3136 92.1177 44.8416C92.8279 44.2312 93.4343 43.7509 93.9922 43.2192C94.6413 42.6003 95.2327 41.9209 95.8753 41.2941C98.5426 38.6917 101.192 38.1686 102.958 39.8791C104.837 41.6958 104.24 44.3521 101.274 47.0897C99.9682 48.2953 98.58 49.4131 97.5167 50.3247C100.546 55.2335 103.555 59.7714 103.566 68.5444C104.123 68.5162 105.304 68.3915 106.482 68.4131C108.15 68.4125 109.817 68.5123 111.474 68.7111C112.158 68.7925 112.785 69.1292 113.232 69.6536C113.678 70.1774 113.911 70.8508 113.884 71.5386C113.941 72.2258 113.74 72.9097 113.321 73.4565C112.902 74.0038 112.294 74.376 111.616 74.5C109.974 74.777 108.31 74.9004 106.645 74.8702C105.463 74.8177 104.285 74.6989 103.116 74.5132ZM66.577 95.1025C74.2351 94.9299 79.7352 94.0261 84.9387 91.6777C87.1197 90.7536 89.0618 89.3438 90.6167 87.5572C92.1722 85.77 93.2998 83.652 93.9141 81.364C96.4968 72.3997 95.0686 63.9713 90.0069 56.2653C87.163 51.9334 79.1518 43.082 63.2434 45.9397C62.3657 46.058 61.5041 46.2752 60.6751 46.587C49.331 51.5193 43.0242 60.1311 42.2379 72.4995C41.6157 82.296 47.2333 90.388 56.6419 93.1892C60.4763 94.3287 64.5318 94.7225 66.579 95.1025H66.577Z" fill="black"/>
<path d="M140.028 75.5835C140.028 81.8627 140.012 88.1419 140.036 94.4204C140.046 97.2505 139.223 98.6065 136.491 99.3318C134.658 99.8437 132.767 100.125 130.864 100.167C126.978 100.194 123.598 96.7419 123.432 92.4993C123.306 89.2577 123.535 86.0016 123.669 82.752C124.009 74.576 124.383 66.4007 124.748 58.2261C124.798 57.1064 124.958 55.9847 124.916 54.8696C124.798 51.7192 126.826 50.0652 130.359 49.8591C132.144 49.7548 133.945 49.8985 135.738 49.9634C138.166 50.0507 138.937 50.6008 139.281 53.0798C139.65 55.7431 139.861 58.4258 139.914 61.114C140.011 65.9353 139.942 70.7621 139.942 75.5822L140.028 75.5835ZM131.323 91.5686C133.55 91.8784 133.502 90.7718 133.522 89.7453C133.735 78.5337 133.94 67.3209 134.138 56.1088C134.093 55.5505 133.997 54.9977 133.85 54.4575H130.724C130.926 66.9527 131.124 79.2255 131.323 91.5719V91.5686Z" fill="black"/>
<path d="M52.482 70.6342C52.5168 67.9878 53.1807 65.3872 54.4188 63.0476C55.6569 60.7081 57.4337 58.6967 59.6025 57.1794C61.0754 56.1781 62.7872 55.5846 64.5638 55.4591C67.14 55.3183 69.7234 55.4467 72.2726 55.8424C81.3622 57.0933 85.933 66.3555 81.3957 74.351C77.8055 80.6807 71.8512 82.4817 65.077 82.3163C62.1336 82.2678 59.2731 81.3325 56.8688 79.6339C53.7663 77.4378 52.4387 74.3806 52.482 70.6342ZM65.6952 75.4629C68.0589 75.5357 70.3837 74.8452 72.3245 73.4938C75.8969 70.6847 75.3279 65.696 71.0833 64.1812C68.6936 63.328 66.0814 63.0785 63.5556 62.6368C63 62.5155 62.4193 62.6001 61.9215 62.8749C61.4236 63.1497 61.0425 63.596 60.849 64.1307C60.3891 65.0241 59.9746 65.9401 59.6072 66.8753C57.7826 72.275 60.0245 75.4163 65.6952 75.4596V75.4629Z" fill="black"/>
</g>
<defs>
<clipPath id="clip0">
<rect width="158.177" height="157.521" fill="white" transform="translate(0.201904 0.0776367)"/>
</clipPath>
</defs>
</svg>

<svg xmlns="http://www.w3.org/2000/svg" width="159" height="158" fill="none" viewBox="0 0 159 158"><g fill="#000" clip-path="url(#a)"><path d="M131.257 138.942c.456 3.704.99 7.124 1.269 10.567.304 3.741-1.444 5.949-4.998 6.258-6.596.575-13.207.985-19.813 1.454-.447.032-.898.012-1.348.008-4.839-.037-6.456-1.731-6.343-6.511.066-2.805.023-5.613.01-8.419a10 10 0 0 0-.149-1.226H54.717c.215 1.612.44 2.784.513 3.965a54 54 0 0 1 .257 7.045c-.19 2.785-1.882 4.468-4.538 4.486-6.623.044-13.258.077-19.868-.243-4.71-.228-5.67-1.694-5.526-6.497.086-2.914.016-5.834.016-9.162l-6.88-.9c-3.587-.467-7.03-1.312-10.188-3.22a11.9 11.9 0 0 1-5.663-7.594 88.3 88.3 0 0 1-2.428-22.365c.095-11.787.394-23.573.545-35.36.19-14.923.285-29.848.493-44.771.08-5.782 2.26-10.912 5.273-15.752 3.113-5 7.876-7.302 13.45-7.877 6.695-.687 13.425-1.228 20.15-1.378 10.217-.223 20.444.097 30.663-.09 9.878-.18 19.749-.95 29.625-1.02 12.343-.088 24.694.153 37.032.533 2.959.091 5.943 1.105 8.809 2.025a10.83 10.83 0 0 1 7.321 7.757c1.595 5.623 2.949 11.319 2.853 17.21-.19 11.785-.722 23.57-.68 35.352.033 9.872.609 19.746 1.064 29.613.387 8.401 1.551 16.763.382 25.203a25.83 25.83 0 0 1-7.088 14.57c-2.822 2.98-6.553 4.25-10.466 4.989-2.837.531-5.703.902-8.581 1.35m-12.738-5.665c6.706-.353 13.39-1.384 20.045-2.349 4.949-.718 8.051-3.863 9.295-8.615a31.6 31.6 0 0 0 1.242-8.277 512 512 0 0 0-.891-24.223c-.656-10.887-.652-21.758-.277-32.657.393-11.439.376-22.894.426-34.342.008-1.882-.528-3.77-.861-5.645-.829-4.673-3.478-7.377-8.345-7.73-1.338-.097-2.659-.501-3.994-.542-8.751-.266-17.508-.757-26.254-.643q-35.207.459-70.407 1.416c-6.262.174-12.503 1.212-18.746 1.919-3.413.386-5.792 2.37-7.245 5.374a32.1 32.1 0 0 0-3.34 13.281c-.22 8.857-.55 17.712-.71 26.57-.302 16.842-.656 33.687-.69 50.531-.012 5.579.914 11.162 1.355 16.748.417 5.285 3.384 8.067 8.474 8.856.886.138 1.758.415 2.646.478 6.49.46 12.978 1.127 19.476 1.257 10.44.208 62.995-.574 78.801-1.407m4.832 6.222-17.639 1.15 1.379 9.194 16.263-1.067zm-75.656 10.734-.487-9.018H30.62l.866 8.705a23 23 0 0 0 2.402.301c4.446.021 8.893.012 13.806.012"/><path d="M103.116 74.513c-.951 3.64-1.495 7.113-2.789 10.28-1.252 3.057-3.278 5.798-5.067 8.86a19 19 0 0 1 1.903 2.444 8.5 8.5 0 0 1 1.339 3.377 3.368 3.368 0 0 1-5.36 3.019c-1.657-1.193-2.821-3.067-4.18-4.603l-16.6 4.456c0 .505-.022 1.369.005 2.232.026.788.118 1.567.156 2.351.19 3.802-1.32 6.177-4.01 6.317-2.752.144-4.502-2.334-4.462-6.301.014-1.559 0-3.118 0-5.026-5.951-.859-11.9-1.889-17.3-5.477-1.462 1.39-2.854 2.813-4.357 4.107a15.2 15.2 0 0 1-3.53 2.494 3.19 3.19 0 0 1-3.991-.813 3.27 3.27 0 0 1-.319-4.07 15.7 15.7 0 0 1 2.58-3.044c1.158-1.043 2.504-1.877 3.841-2.856-1.472-2.634-3.141-5.127-4.303-7.838-1.133-2.644-1.748-5.513-2.666-8.532-1.688.093-3.556.277-5.425.27a23 23 0 0 1-3.991-.433 2.5 2.5 0 0 1-2.246-2.544 2.615 2.615 0 0 1 2.322-2.855c2.311-.431 4.663-.648 7.001-.931.771-.094 1.552-.114 2.691-.193 1.211-6.655 3.525-12.891 8.127-18.049-1.262-1.297-2.409-2.487-3.568-3.664-.788-.799-1.653-1.53-2.375-2.383-1.447-1.71-1.583-3.3-.497-4.541 1.056-1.207 2.882-1.401 4.576-.11 2.303 1.758 4.423 3.756 6.887 5.879 5.458-4.438 12.356-5.854 19.226-8.183.1-1.407.173-2.834.31-4.255.138-1.45.073-3 .6-4.304.394-.973 1.537-2.175 2.443-2.262.923-.089 2.227.865 2.88 1.728.614.813.68 2.092.839 3.187.237 1.65.343 3.319.525 5.212 6.957.156 12.737 2.855 17.787 7.383.71-.61 1.316-1.091 1.874-1.623.65-.619 1.24-1.298 1.883-1.925 2.668-2.602 5.317-3.125 7.083-1.415 1.879 1.817 1.282 4.473-1.684 7.21-1.306 1.206-2.694 2.324-3.757 3.236 3.029 4.908 6.038 9.446 6.049 18.22.557-.029 1.738-.154 2.916-.132 1.668 0 3.335.1 4.992.298a2.734 2.734 0 0 1 2.41 2.828 2.777 2.777 0 0 1-2.268 2.961c-1.642.277-3.306.4-4.971.37a31 31 0 0 1-3.529-.357m-36.539 20.59c7.658-.173 13.158-1.077 18.362-3.425a15.6 15.6 0 0 0 8.975-10.314c2.583-8.964 1.155-17.393-3.907-25.099-2.844-4.332-10.855-13.183-26.764-10.325-.877.118-1.739.335-2.568.647-11.344 4.932-17.65 13.544-18.437 25.912-.622 9.797 4.995 17.889 14.404 20.69 3.834 1.14 7.89 1.534 9.937 1.914zm73.451-19.519c0 6.279-.016 12.558.008 18.836.01 2.83-.813 4.186-3.545 4.912a22.8 22.8 0 0 1-5.627.835c-3.886.027-7.266-3.425-7.432-7.668-.126-3.241.103-6.497.237-9.747.34-8.176.714-16.351 1.079-24.526.05-1.12.21-2.241.168-3.356-.118-3.15 1.91-4.805 5.443-5.01 1.785-.105 3.586.038 5.379.103 2.428.088 3.199.638 3.543 3.117a68 68 0 0 1 .633 8.034c.097 4.821.028 9.648.028 14.468zm-8.705 15.985c2.227.31 2.179-.797 2.199-1.824q.32-16.817.616-33.636a9 9 0 0 0-.288-1.651h-3.126l.599 37.114z"/><path d="M52.482 70.634a16.69 16.69 0 0 1 7.12-13.455 10.1 10.1 0 0 1 4.962-1.72c2.576-.14 5.16-.012 7.709.383 9.09 1.251 13.66 10.514 9.123 18.509-3.59 6.33-9.545 8.13-16.319 7.965a14.64 14.64 0 0 1-8.208-2.682c-3.103-2.196-4.43-5.253-4.387-9m13.213 4.829a11 11 0 0 0 6.63-1.97c3.572-2.808 3.003-7.797-1.242-9.312-2.39-.853-5.002-1.102-7.527-1.544a2.346 2.346 0 0 0-2.707 1.494 30 30 0 0 0-1.242 2.744c-1.824 5.4.418 8.541 6.088 8.585z"/></g><defs><clipPath id="a"><path fill="#fff" d="M.202.078h158.177v157.52H.202z"/></clipPath></defs></svg>
